X:1
T:In der Fremde
T:In der Fremde
T:Joseph Rheinberger
T:Joseph von Eichendorff
C:Joseph Rheinberger
Z:Joseph von Eichendorff
%%score 1 { ( 2 4 ) | ( 3 5 ) }
L:1/8
Q:1/4=92
M:2/2
K:G
V:1 treble nm="Stimme"
V:2 treble nm="Klavier"
V:4 treble 
V:3 bass 
V:5 bass 
V:1
"^Con moto""_Con moto" z8 | z4 z2!p! D2 |: G3 B B3 e | e4 B2 z B | B2 (GA) B2 c2 | B3 z z2 B2 | %6
w: |1  Ich|hör die Bäch- lein|rau- schen im|Wal- de _ her und|hin, im|
w: ||2.  Mon - des- schim- mer|flie- gen als|säh' ich _ un- ter|mir das|
 c2 A2 E3 E | =F4 E2 z E | c3 A (EA) (ce) | ^d6 z2 | z4 z2!f! ^d2 | e4 B2 z B |"^dim." c4 G3 z | %13
w: Wal- de, in dem|Rau- schen ich|weiss nicht, wo _ ich _|bin,|ich|weiss nicht, ich|weiss nicht|
w: Schloss im Ta- le|lie- gen und|ist doch weit _ von _|hier,|und|ist doch so|weit, ach!|
!pp! F6 F2 | E2 z2 z2 (EF) | ^G3 E E2 B2 | (^d2 ^c2) F2 ^G2 | (A2 ^c2 e2) ^d2 | B3 A ^G2 (EF) | %19
w: wo ich|bin. Die _|Nach- ti- gal- len|schla- * gen hier|in _ _ der|Ein- sam- keit als _|
w: weit von|hier! Als _|müss- te in dem|Gar- * ten voll|Ro- * * sen|weiss und rot mei- ne|
 ^G3 E E2 B2 | (^d2 ^c2) F2 (F^G) | A3 A !fermata!=c3 B | B2 z2 z4 | z8 | z8 | z4 z2!p! B2 :| %26
w: wol- ten sie was|sa- * gen von der|al- ten, schö- nen|Zeit!|||2.  Die|
w: Lieb- ste auf mich|war- * ten, und _|ist doch lan- ge|tot!|||3.  Als|
 G3 B B3 e | e4 B2 B2 | B2 G2 A2 B2 | c6 C C | E3 G G3 c | c4 A2 z2 | z4!pp! A4 | A4 A4 | B4 c4 | %35
w: müss- te in dem|Gar- ten voll|Ro- sen weiss und|rot mei- ne|Lieb- ste auf mich|war- ten|und|ist doch|lan- ge|
w: |||||||||
 B8- | B2 z2 z4 | z8 | !fermata!z8 |] %39
w: tot!|_|||
w: ||||
V:2
!pp! (6:4:6(GBAGFE) (e2 B) z | (6:4:6(GBAGFE) (e2 B) z |: (6:4:6(GBAGFE) (e2 B) z | %3
 (6:4:6(GBAGFE) (e2 B) z | (6:4:6(GBAGFE) (e2 B) z | (6:4:6(GBAGFE) (e2 B) z | %6
 (6:4:6(cedcBA) (a2 e) z | (6:4:6(cedcBA) (a2 e) z | (6:4:6(cedcBA) (a2 e) z | %9
 (6:4:6(^dfed^cB) (b2 f) z | (6:4:6(^dfed^cB) (b2 f) z | (6:4:6(gbagfe) (e'2 b) z | %12
 (6:4:6(egfedc) (c'2 g) z | (6:4:6(fagf=fe (6:4:6^dcBAG^F) | (EB,^C^D) (E[B,D][^CE][DF]) | [E^G]8 | %16
 [EF]6 [E^G]2 | A8 | [^DF]4 [E^G]4 | [E^G]8 | F6 F^G | [EA]4- !fermata![EA]2 z2 | %22
 (6:4:6(^Dfe^d^cB) (6:4:6(^D^FED^CB,) | (6:4:6(^dfed=cB) (a2 f) z | (6:4:6(Be=d=c^AB) (g2 e) z | %25
 (6:4:6z (^d!courtesy!=cB^AB) (f2 d) z :|!pp! (6:4:6(gb=agfe) (e'2 b) z | %27
 (6:4:6(gbagfe) (e'2 b) z | (6:4:6(gbagfe) (e'2 b) z | (6:4:6(egfedc) (c'2 g) z | %30
 (6:4:6(egfedc) (c'2 g) z | (6:4:6(cedcBA) (a2 e) z | (6:4:6(cedcBA) (a2 e) z | %33
 (6:4:6(cedcBA) (a2 e) z | (6:4:6(cedcBA) (a2 e) z | (6:4:6(^gbagfe) (e'2 b) z | %36
 (6:4:6(^gbagfe) (e'2 b) z | e2 B z E2 B, z | x8 |] %39
V:3
 z4 (6:4:6(G,B,A,G,F,E,) | (E2 B,) z (6:4:6(G,B,A,G,F,E,) |: (E2 B,) z (6:4:6(G,B,A,G,F,E,) | %3
 (E2 B,) z (6:4:6(G,B,A,G,F,E,) | (E2 B,) z (6:4:6(G,B,A,G,F,E,) | (E2 B,) z (6:4:6(G,B,A,G,F,E,) | %6
 (E2 B,) z (6:4:6(CEDCB,A,) | x4 (6:4:6(CEDCB,A,) | x4 (6:4:6(CEDCB,A,) | x8 | x8 | x8 | x8 | %13
[I:staff -1] A[I:staff +1] z A, z B, z B,, z | [E,,E,]6 z2 | E,,E,^D,E, ^G,,E,D,E, | %16
 A,,E,^D,E, A,,E,^G,,E, | F,,F,^E,F, A,,F,E,F, | B,,F,^E,F, =E,,F,E,F, | E,,=E,^D,E, ^G,,E,D,E, | %20
 A,,E,^D,E, A,,E,A,,^G,, | F,,4 !fermata!F,,2 z2 | B,,2 z2 z4 | x8 | x8 | x8 :| x8 | x8 | x8 | x8 | %30
 x8 | x8 | x8 | x8 | x8 | x8 | x8 | x8 | !fermata![E,,E,]2 z2 z4 |] %39
V:4
 x8 | x8 |: x8 | x8 | x8 | x8 | x8 | (A2 E) z x4 | (A2 E) z x4 | (F2 B,) z (6:4:6(^D^FED^CB,) | %10
 (F2 B,) z (6:4:6(^D^FED^CB,) | (B2 E) z (6:4:6(GBAGFE) | (c2 G) z (6:4:6(EGFEDC) | x8 | x8 | x8 | %16
 x8 | x8 | x8 | x8 | E8- | x8 | x4 (b2 f) z | (B2 F) z (6:4:6(^D^FED^CB,) | %24
 (G2 E) z (6:4:6(B,=B=AGFE) | (F2 ^D) z (6:4:6(B,^DF=AGF) :| %26
 (E2[I:staff +1] B,)[I:staff -1] z (6:4:6(GBAGFE) | (e2 B) z (6:4:6(GBAGFE) | %28
 (e2 B) z (6:4:6(GBAGFE) | (c2 G) z (6:4:6(EGFEDC) | (c2 G) z (6:4:6(EGFEDC) | %31
 (A2 E) z (6:4:6(CEDCB,A,) | (A2 E) z (6:4:6(CEDCB,A,) | (A2 E) z (6:4:6(CEDCB,A,) | %34
 (A2 E) z (6:4:6(CEDCB,A,) | E2 z2 (6:4:6(^GBAGFE) | e2 z2 (6:4:6(^GBAGFE) | x8 | x8 |] %39
V:5
 x8 | x8 |: x8 | x8 | x8 | x8 | x8 | x8 | x8 | x8 | x8 | x8 | x8 | x8 | x8 | E,,4 ^G,,4 | %16
 A,,4 A,,2 ^G,,2 | F,,4 A,,4 | B,,4 E,,4 | E,,4 ^G,,4 | A,,4 A,,2 A,,^G,, | x8 | x8 | x8 | x8 | %25
 x8 :| x8 | x8 | x8 | x8 | x8 | x8 | x8 | x8 | x8 | x8 | x8 | x8 | x8 |] %39

